docs/images/docracy.svg

<svg height="248" viewBox="0 0 248 248" width="248" xmlns="http://www.w3.org/2000/svg"><g fill="none" fill-rule="evenodd"><circle cx="124" cy="124" fill="#4ebbe9" r="124"/><g fill="#fff"><path d="m126.175128 185c0 2.605377 1.023086 4.961675 3.06929 7.068966 2.046204 2.10729 4.939069 3.160919 8.678683 3.160919h18.839092c2.469556 0 4.551008.344824 6.244418 1.034483 1.69341.689658 3.051646 1.609189 4.074748 2.758621 1.023102 1.149431 1.763957 2.471256 2.222589 3.965517.458632 1.49426.687945 3.045969.687945 4.655172v7.356322h-6.350256v-6.436782c0-1.379317-.264591-2.47126-.793782-3.275862-.529191-.804601-1.217128-1.379308-2.063833-1.724138-.846705-.344829-1.799234-.555555-2.857615-.632184-1.058382-.076628-2.081468-.114942-3.069291-.114942h-18.204066c-2.540115 0-4.674485-.402295-6.403175-1.206897-1.728689-.804601-3.104564-1.762446-4.127666-2.873563-1.023102-1.111116-1.763958-2.241373-2.222589-3.390804-.458632-1.149431-.723224-2.068962-.793782-2.758621h-.211676c-.070558.689659-.33515 1.60919-.793782 2.758621-.458631 1.149431-1.199487 2.279688-2.222589 3.390804-1.023102 1.111117-2.398977 2.068962-4.127666 2.873563-1.72869.804602-3.86306 1.206897-6.403175 1.206897h-18.2040665c-.9878225 0-2.010909.038314-3.0692903.114942-1.0583812.076629-2.01091.287355-2.857615.632184-.8467051.34483-1.5346425.919537-2.0638332 1.724138-.5291906.804602-.7937819 1.896545-.7937819 3.275862v6.436782h-6.3502558v-7.356322c0-1.609203.2293125-3.160912.6879444-4.655172.4586318-1.494261 1.1994876-2.816086 2.2225895-3.965517 1.0231019-1.149432 2.3813374-2.068963 4.0747474-2.758621 1.69341-.689659 3.7748619-1.034483 6.2444182-1.034483h18.8390922c3.739614 0 6.632479-1.053629 8.678683-3.160919 2.046204-2.107291 3.06929-4.463589 3.06929-7.068966zm0 0"/><path d="m75 32v142h96v-121.5009766l-21.25-20.4990234zm82 26.2317324v101.7682676h-68v-114h55.210854zm0 0"/></g></g></svg>

<?xml version="1.0" encoding="UTF-8" standalone="no"?>
<svg width="248px" height="248px" viewBox="0 0 248 248" version="1.1" xmlns="http://www.w3.org/2000/svg" xmlns:xlink="http://www.w3.org/1999/xlink" xmlns:sketch="http://www.bohemiancoding.com/sketch/ns">
    <title>docracy </title>
    <description>Created with Sketch (http://www.bohemiancoding.com/sketch)</description>
    <defs></defs>
    <g id="Page-1" stroke="none" stroke-width="1" fill="none" fill-rule="evenodd" sketch:type="MSPage">
        <circle d="M124,248 C192.483312,248 248,192.483312 248,124 C248,55.5166876 192.483312,0 124,0 C55.5166876,0 0,55.5166876 0,124 C0,192.483312 55.5166876,248 124,248 Z M124,248" id="Oval-1" fill="#4EBBE9" sketch:type="MSShapeGroup" cx="124" cy="124" r="124"></circle>
        <path d="M126.175128,185 C126.175128,187.605377 127.198214,189.961675 129.244418,192.068966 C131.290622,194.176256 134.183487,195.229885 137.923101,195.229885 L156.762193,195.229885 C159.231749,195.229885 161.313201,195.574709 163.006611,196.264368 C164.700021,196.954026 166.058257,197.873557 167.081359,199.022989 C168.104461,200.17242 168.845316,201.494245 169.303948,202.988506 C169.76258,204.482766 169.991893,206.034475 169.991893,207.643678 L169.991893,215 L163.641637,215 L163.641637,208.563218 C163.641637,207.183901 163.377046,206.091958 162.847855,205.287356 C162.318664,204.482755 161.630727,203.908048 160.784022,203.563218 C159.937317,203.218389 158.984788,203.007663 157.926407,202.931034 C156.868025,202.854406 155.844939,202.816092 154.857116,202.816092 L136.65305,202.816092 C134.112935,202.816092 131.978565,202.413797 130.249875,201.609195 C128.521186,200.804594 127.145311,199.846749 126.122209,198.735632 C125.099107,197.624516 124.358251,196.494259 123.89962,195.344828 C123.440988,194.195397 123.176396,193.275866 123.105838,192.586207 L122.894162,192.586207 C122.823604,193.275866 122.559012,194.195397 122.10038,195.344828 C121.641749,196.494259 120.900893,197.624516 119.877791,198.735632 C118.854689,199.846749 117.478814,200.804594 115.750125,201.609195 C114.021435,202.413797 111.887065,202.816092 109.34695,202.816092 L91.1428835,202.816092 C90.155061,202.816092 89.1319745,202.854406 88.0735932,202.931034 C87.015212,203.007663 86.0626832,203.218389 85.2159782,203.563218 C84.3692731,203.908048 83.6813357,204.482755 83.152145,205.287356 C82.6229544,206.091958 82.3583631,207.183901 82.3583631,208.563218 L82.3583631,215 L76.0081073,215 L76.0081073,207.643678 C76.0081073,206.034475 76.2374198,204.482766 76.6960517,202.988506 C77.1546835,201.494245 77.8955393,200.17242 78.9186412,199.022989 C79.9417431,197.873557 81.2999786,196.954026 82.9933886,196.264368 C84.6867986,195.574709 86.7682505,195.229885 89.2378068,195.229885 L108.076899,195.229885 C111.816513,195.229885 114.709378,194.176256 116.755582,192.068966 C118.801786,189.961675 119.824872,187.605377 119.824872,185 L119.824872,185 L126.175128,185 L126.175128,185 Z M126.175128,185" id="{" fill="#FFFFFF" sketch:type="MSShapeGroup"></path>
        <path d="M75,32 L75,174 L171,174 L171,52.4990234 L149.75,32 L75,32 Z M157,58.2317324 L157,160 L89,160 L89,46 L144.210854,46 L157,58.2317324 Z M157,58.2317324" id="Path" fill="#FFFFFF" sketch:type="MSShapeGroup"></path>
    </g>
</svg>
